**harm	**harte	**timestamp	**phrase	**leadinstrument	**kern
*M4/4	*M4/4	*	*	*	*
*E:	*E:	*	*	*	*E:
1r;	N	0	.	r	1r;
=1	=1	=1	=1	=1	=1
*>A_intro	*>A_intro	*>A_intro	*>A_intro	*>A_intro	*>A_intro
1I	E:maj	0.232	newline	guitar	1E 1g# 1b
=2	=2	=2	=2	=2	=2
1I	E:maj	1.863	.	guitar	1E 1g# 1b
=3	=3	=3	=3	=3	=3
1vi	C#:min	3.494	.	guitar	1C# 1e 1g#
=4	=4	=4	=4	=4	=4
1vi	C#:min	5.125	.	guitar	1C# 1e 1g#
=5	=5	=5	=5	=5	=5
1I	E:maj	6.756	newline	guitar	1E 1g# 1b
=6	=6	=6	=6	=6	=6
1I	E:maj	8.334	.	guitar	1E 1g# 1b
=7	=7	=7	=7	=7	=7
1vi	C#:min	9.913	.	guitar	1C# 1e 1g#
=8	=8	=8	=8	=8	=8
1vi	C#:min	11.492	.	guitar	1C# 1e 1g#
=9	=9	=9	=9	=9	=9
1IV	A:maj	13.07	newline	guitar	1A 1cc# 1ee
=10	=10	=10	=10	=10	=10
1IV	A:maj	14.667	.	guitar	1A 1cc# 1ee
=11	=11	=11	=11	=11	=11
1I	E:maj	16.265	.	guitar	1E 1g# 1b
=12	=12	=12	=12	=12	=12
1I	E:maj	17.862	.	guitar	1E 1g# 1b
=13	=13	=13	=13	=13	=13
1IV	A:maj	19.46	newline	guitar	1A 1cc# 1ee
=14	=14	=14	=14	=14	=14
1IV	A:maj	21.049	.	guitar	1A 1cc# 1ee
=15	=15	=15	=15	=15	=15
1V	B:maj	22.639	.	guitar	1B 1dd# 1ff#
=16	=16	=16	=16	=16	=16
1V	B:maj	24.229	.	guitar	1B 1dd# 1ff#
=17	=17	=17	=17	=17	=17
*>B_verse	*>B_verse	*>B_verse	*>B_verse	*>B_verse	*>B_verse
1I	E:maj	25.819	newline	voice	1E 1g# 1b
=18	=18	=18	=18	=18	=18
1I	E:maj	27.377	.	voice	1E 1g# 1b
=19	=19	=19	=19	=19	=19
1vi	C#:min	28.935	.	voice	1C# 1e 1g#
=20	=20	=20	=20	=20	=20
1vi	C#:min	30.493	.	voice	1C# 1e 1g#
=21	=21	=21	=21	=21	=21
1I	E:maj	32.051	newline	voice	1E 1g# 1b
=22	=22	=22	=22	=22	=22
1I	E:maj	33.629	.	voice	1E 1g# 1b
=23	=23	=23	=23	=23	=23
1vi	C#:min	35.207	.	voice	1C# 1e 1g#
=24	=24	=24	=24	=24	=24
1vi	C#:min	36.785	.	voice	1C# 1e 1g#
=25	=25	=25	=25	=25	=25
1IV	A:maj	38.363	newline	voice	1A 1cc# 1ee
=26	=26	=26	=26	=26	=26
1IV	A:maj	39.954	.	voice	1A 1cc# 1ee
=27	=27	=27	=27	=27	=27
1I	E:maj	41.545	.	voice	1E 1g# 1b
=28	=28	=28	=28	=28	=28
1I	E:maj	43.136	.	voice	1E 1g# 1b
=29	=29	=29	=29	=29	=29
1IV	A:maj	44.728	newline	voice	1A 1cc# 1ee
=30	=30	=30	=30	=30	=30
1IV	A:maj	46.346	.	voice	1A 1cc# 1ee
=31	=31	=31	=31	=31	=31
1V	B:maj	47.964	.	voice	1B 1dd# 1ff#
=32	=32	=32	=32	=32	=32
1V	B:maj	49.582	.	voice	1B 1dd# 1ff#
=33	=33	=33	=33	=33	=33
*>B_verse	*>B_verse	*>B_verse	*>B_verse	*>B_verse	*>B_verse
1I	E:maj	51.201	newline	voice	1E 1g# 1b
=34	=34	=34	=34	=34	=34
1I	E:maj	52.786	.	voice	1E 1g# 1b
=35	=35	=35	=35	=35	=35
1vi	C#:min	54.372	.	voice	1C# 1e 1g#
=36	=36	=36	=36	=36	=36
1vi	C#:min	55.958	.	voice	1C# 1e 1g#
=37	=37	=37	=37	=37	=37
1I	E:maj	57.544	newline	voice	1E 1g# 1b
=38	=38	=38	=38	=38	=38
1I	E:maj	59.109	.	voice	1E 1g# 1b
=39	=39	=39	=39	=39	=39
1vi	C#:min	60.674	.	voice	1C# 1e 1g#
=40	=40	=40	=40	=40	=40
1vi	C#:min	62.239	.	voice	1C# 1e 1g#
=41	=41	=41	=41	=41	=41
1IV	A:maj	63.804	newline	voice	1A 1cc# 1ee
=42	=42	=42	=42	=42	=42
1IV	A:maj	65.401	.	voice	1A 1cc# 1ee
=43	=43	=43	=43	=43	=43
1I	E:maj	66.998	.	voice	1E 1g# 1b
=44	=44	=44	=44	=44	=44
1I	E:maj	68.594	.	voice	1E 1g# 1b
=45	=45	=45	=45	=45	=45
1IV	A:maj	70.191	newline	voice	1A 1cc# 1ee
=46	=46	=46	=46	=46	=46
1IV	A:maj	71.769	.	voice	1A 1cc# 1ee
=47	=47	=47	=47	=47	=47
1V	B:maj	73.348	.	voice	1B 1dd# 1ff#
=48	=48	=48	=48	=48	=48
1V	B:maj	74.926	.	voice	1B 1dd# 1ff#
=49	=49	=49	=49	=49	=49
*>C_chorus	*>C_chorus	*>C_chorus	*>C_chorus	*>C_chorus	*>C_chorus
1IV	A:maj	76.504	newline	voice	1A 1cc# 1ee
=50	=50	=50	=50	=50	=50
1IV	A:maj	78.09	.	voice	1A 1cc# 1ee
=51	=51	=51	=51	=51	=51
1I	E:maj	79.676	.	voice	1E 1g# 1b
=52	=52	=52	=52	=52	=52
1I	E:maj	81.262	.	voice	1E 1g# 1b
=53	=53	=53	=53	=53	=53
1V	B:maj	82.848	newline	voice	1B 1dd# 1ff#
=54	=54	=54	=54	=54	=54
1V	B:maj	84.436	.	voice	1B 1dd# 1ff#
=55	=55	=55	=55	=55	=55
1I	E:maj	86.023	.	voice	1E 1g# 1b
=56	=56	=56	=56	=56	=56
1I	E:maj	87.61	.	voice	1E 1g# 1b
=57	=57	=57	=57	=57	=57
1IV	A:maj	89.198	newline	voice	1A 1cc# 1ee
=58	=58	=58	=58	=58	=58
1IV	A:maj	90.807	.	voice	1A 1cc# 1ee
=59	=59	=59	=59	=59	=59
1I	E:maj	92.416	.	voice	1E 1g# 1b
=60	=60	=60	=60	=60	=60
1I	E:maj	94.024	.	voice	1E 1g# 1b
=61	=61	=61	=61	=61	=61
1V	B:maj	95.633	newline	voice	1B 1dd# 1ff#
=62	=62	=62	=62	=62	=62
1V	B:maj	97.189	.	voice	1B 1dd# 1ff#
=63	=63	=63	=63	=63	=63
1IV	A:maj	98.745	.	voice	1A 1cc# 1ee
=64	=64	=64	=64	=64	=64
1I	E:maj	100.302	.	voice	1E 1g# 1b
=65	=65	=65	=65	=65	=65
1I	E:maj	101.858	.	voice	1E 1g# 1b
=66	=66	=66	=66	=66	=66
*>B_verse	*>B_verse	*>B_verse	*>B_verse	*>B_verse	*>B_verse
1I	E:maj	103.414	newline	voice	1E 1g# 1b
=67	=67	=67	=67	=67	=67
1I	E:maj	104.996	.	voice	1E 1g# 1b
=68	=68	=68	=68	=68	=68
1vi	C#:min	106.578	.	voice	1C# 1e 1g#
=69	=69	=69	=69	=69	=69
1vi	C#:min	108.161	.	voice	1C# 1e 1g#
=70	=70	=70	=70	=70	=70
1I	E:maj	109.743	newline	voice	1E 1g# 1b
=71	=71	=71	=71	=71	=71
1I	E:maj	111.356	.	voice	1E 1g# 1b
=72	=72	=72	=72	=72	=72
1vi	C#:min	112.968	.	voice	1C# 1e 1g#
=73	=73	=73	=73	=73	=73
1vi	C#:min	114.581	.	voice	1C# 1e 1g#
=74	=74	=74	=74	=74	=74
1IV	A:maj	116.193	newline	voice	1A 1cc# 1ee
=75	=75	=75	=75	=75	=75
1IV	A:maj	117.773	.	voice	1A 1cc# 1ee
=76	=76	=76	=76	=76	=76
1I	E:maj	119.352	.	voice	1E 1g# 1b
=77	=77	=77	=77	=77	=77
1I	E:maj	120.932	.	voice	1E 1g# 1b
=78	=78	=78	=78	=78	=78
1IV	A:maj	122.511	newline	voice	1A 1cc# 1ee
=79	=79	=79	=79	=79	=79
1IV	A:maj	124.11	.	voice	1A 1cc# 1ee
=80	=80	=80	=80	=80	=80
1V	B:maj	125.709	.	voice	1B 1dd# 1ff#
=81	=81	=81	=81	=81	=81
1V	B:maj	127.309	.	voice	1B 1dd# 1ff#
=82	=82	=82	=82	=82	=82
*>C_chorus	*>C_chorus	*>C_chorus	*>C_chorus	*>C_chorus	*>C_chorus
1IV	A:maj	128.908	newline	voice	1A 1cc# 1ee
=83	=83	=83	=83	=83	=83
1IV	A:maj	130.488	.	voice	1A 1cc# 1ee
=84	=84	=84	=84	=84	=84
1I	E:maj	132.069	.	voice	1E 1g# 1b
=85	=85	=85	=85	=85	=85
1I	E:maj	133.649	.	voice	1E 1g# 1b
=86	=86	=86	=86	=86	=86
1V	B:maj	135.23	newline	voice	1B 1dd# 1ff#
=87	=87	=87	=87	=87	=87
1V	B:maj	136.83	.	voice	1B 1dd# 1ff#
=88	=88	=88	=88	=88	=88
1I	E:maj	138.429	.	voice	1E 1g# 1b
=89	=89	=89	=89	=89	=89
1I	E:maj	140.029	.	voice	1E 1g# 1b
=90	=90	=90	=90	=90	=90
1IV	A:maj	141.628	newline	voice	1A 1cc# 1ee
=91	=91	=91	=91	=91	=91
1IV	A:maj	143.187	.	voice	1A 1cc# 1ee
=92	=92	=92	=92	=92	=92
1I	E:maj	144.746	.	voice	1E 1g# 1b
=93	=93	=93	=93	=93	=93
1I	E:maj	146.305	.	voice	1E 1g# 1b
=94	=94	=94	=94	=94	=94
1V	B:maj	147.864	newline	voice	1B 1dd# 1ff#
=95	=95	=95	=95	=95	=95
1V	B:maj	149.443	.	voice	1B 1dd# 1ff#
=96	=96	=96	=96	=96	=96
1IV	A:maj	151.021	.	voice	1A 1cc# 1ee
=97	=97	=97	=97	=97	=97
1I	E:maj	152.6	.	voice	1E 1g# 1b
=98	=98	=98	=98	=98	=98
1I	E:maj	154.179	.	voice	1E 1g# 1b
=99	=99	=99	=99	=99	=99
*>D_solo	*>D_solo	*>D_solo	*>D_solo	*>D_solo	*>D_solo
1I	E:maj	155.757	newline	guitar	1E 1g# 1b
=100	=100	=100	=100	=100	=100
1I	E:maj	157.361	.	guitar	1E 1g# 1b
=101	=101	=101	=101	=101	=101
1vi	C#:min	158.965	.	guitar	1C# 1e 1g#
=102	=102	=102	=102	=102	=102
1vi	C#:min	160.569	.	guitar	1C# 1e 1g#
=103	=103	=103	=103	=103	=103
1I	E:maj	162.172	newline	guitar	1E 1g# 1b
=104	=104	=104	=104	=104	=104
1I	E:maj	163.748	.	guitar	1E 1g# 1b
=105	=105	=105	=105	=105	=105
1vi	C#:min	165.323	.	guitar	1C# 1e 1g#
=106	=106	=106	=106	=106	=106
1vi	C#:min	166.898	.	guitar	1C# 1e 1g#
=107	=107	=107	=107	=107	=107
1IV	A:maj	168.473	newline	guitar	1A 1cc# 1ee
=108	=108	=108	=108	=108	=108
1IV	A:maj	170.076	.	guitar	1A 1cc# 1ee
=109	=109	=109	=109	=109	=109
1I	E:maj	171.678	.	guitar	1E 1g# 1b
=110	=110	=110	=110	=110	=110
1I	E:maj	173.281	.	guitar	1E 1g# 1b
=111	=111	=111	=111	=111	=111
1IV	A:maj	174.883	newline	guitar	1A 1cc# 1ee
=112	=112	=112	=112	=112	=112
1IV	A:maj	176.473	.	guitar	1A 1cc# 1ee
=113	=113	=113	=113	=113	=113
1V	B:maj	178.063	.	guitar	1B 1dd# 1ff#
=114	=114	=114	=114	=114	=114
1V	B:maj	179.652	.	guitar	1B 1dd# 1ff#
=115	=115	=115	=115	=115	=115
*>C_chorus	*>C_chorus	*>C_chorus	*>C_chorus	*>C_chorus	*>C_chorus
1IV	A:maj	181.242	newline	voice	1A 1cc# 1ee
=116	=116	=116	=116	=116	=116
1IV	A:maj	182.849	.	voice	1A 1cc# 1ee
=117	=117	=117	=117	=117	=117
1I	E:maj	184.455	.	voice	1E 1g# 1b
=118	=118	=118	=118	=118	=118
1I	E:maj	186.062	.	voice	1E 1g# 1b
=119	=119	=119	=119	=119	=119
1V	B:maj	187.668	newline	voice	1B 1dd# 1ff#
=120	=120	=120	=120	=120	=120
1V	B:maj	189.241	.	voice	1B 1dd# 1ff#
=121	=121	=121	=121	=121	=121
1I	E:maj	190.813	.	voice	1E 1g# 1b
=122	=122	=122	=122	=122	=122
1I	E:maj	192.386	.	voice	1E 1g# 1b
=123	=123	=123	=123	=123	=123
1IV	A:maj	193.959	newline	voice	1A 1cc# 1ee
=124	=124	=124	=124	=124	=124
1IV	A:maj	195.559	.	voice	1A 1cc# 1ee
=125	=125	=125	=125	=125	=125
1I	E:maj	197.16	.	voice	1E 1g# 1b
=126	=126	=126	=126	=126	=126
1I	E:maj	198.761	.	voice	1E 1g# 1b
=127	=127	=127	=127	=127	=127
1V	B:maj	200.362	newline	voice	1B 1dd# 1ff#
=128	=128	=128	=128	=128	=128
1V	B:maj	201.956	.	voice	1B 1dd# 1ff#
=129	=129	=129	=129	=129	=129
1IV	A:maj	203.551	.	voice	1A 1cc# 1ee
=130	=130	=130	=130	=130	=130
1I	E:maj	205.146	.	voice	1E 1g# 1b
=131	=131	=131	=131	=131	=131
1I	E:maj	206.74	.	voice	1E 1g# 1b
=132	=132	=132	=132	=132	=132
*>E_outro	*>E_outro	*>E_outro	*>E_outro	*>E_outro	*>E_outro
1V	B:maj	208.335	newline	voice	1B 1dd# 1ff#
=133	=133	=133	=133	=133	=133
1V	B:maj	209.942	.	voice	1B 1dd# 1ff#
=134	=134	=134	=134	=134	=134
1IV	A:maj	211.55	.	voice	1A 1cc# 1ee
=135	=135	=135	=135	=135	=135
1I	E:maj	213.157	.	voice	1E 1g# 1b
=136	=136	=136	=136	=136	=136
1I	E:maj	214.765	.	voice	1E 1g# 1b
=137	=137	=137	=137	=137	=137
1V	B:maj	216.372	newline	guitar	1B 1dd# 1ff#
=138	=138	=138	=138	=138	=138
1V	B:maj	217.983	.	guitar	1B 1dd# 1ff#
=139	=139	=139	=139	=139	=139
1IV	A:maj	219.593	.	guitar	1A 1cc# 1ee
=140	=140	=140	=140	=140	=140
1IV	A:maj	221.204	.	guitar	1A 1cc# 1ee
=141	=141	=141	=141	=141	=141
2I	E:maj	222.814	.	guitar	2E 2g# 2b
2Id	E:maj/b7	223.619	.	guitar	2e 2g# 2b
=142	=142	=142	=142	=142	=142
2IVb	A:maj/3	224.425	.	guitar	2a 2C# 2ee
2-VIm7	C:7	225.23	.	guitar	2C 2e 2g 2b
=143	=143	=143	=143	=143	=143
1V7	B:7	226.035	.	guitar	1B 1dd# 1ff# 1aa
=144	=144	=144	=144	=144	=144
1Im7	E:7	227.646	.	guitar	1E 1g# 1b 1dd#
1r;	N	238.919	.	r	1r;
1r;	N	241.45	.	r	1r;
*-	*-	*-	*-	*-	*-
!!!OTL: Redneck Friend
!!!COC: Jackson Browne
!!!BillboardChartDate: 1973/10/20
!!!BillboardPeak: 85
!!!BillboardWeeksOnChart: 10
!!!SampleTargetRank: 85
!!!SampleActualRank: 85
!!!SampleID#: 0545
!!!RDF**harmony: **recip + pitch class of root + harmonic quality
!!!RDF**harte: Chris Harte's syntax, used by MIREX
!!!RDF**phrase: newline = linebreak in original McGill transcription
!!!RDF**timestamp: McGill audio timestamp in seconds
!!!RDF**leadinstrument: original McGill primary instrumentation annotation
!!!RDT: 2017/01/12/
!!!ENC: Nathaniel Condit-Schultz
!!!EST: Awating manual error checking and editing.
